X: 35
T: Lads a Bunchum
P: A+(AABB)xN
R: reel
Z: 2014 John Chambers <jc:trillian.mit.edu>
S: handwritten MS by John Chambers (1970s).
M: 2/4
L: 1/16
K: G
|: "G"B3c Bcde | "C"c2A2 A2Bc | "D7"d3e dcBA | "G"B2G2 G4 :|\
gf \
|: "G"e2d2 d2GA | B2B2 B2gf | e2d2 "C"c2B2 | "D7"A2G2 "G"G4 :|


